X:1
T:Wasn't That a Time
M:2/2
L:1/4
K:D
 D F A| =c4- =c A| c/2 d A/2- A2 z2| z D F A
M:3/2
| =c d A D F A| =c4-
M:3/2
| =c A c/2 d A/2- A D|
M:2/2
 G4| z E A/2 A D/2-| D D/2D/2 F/2| A A/2-| A4| z D/2D/2 F/2 A A/2-|\
 A A B A| d4-| d4| z A =c A|
M:3/2
 A A/2A/2 ^G A F/2E/2 D|
M:2/2
 D4| z||

